Newaita-dark/apps/128/color-pick.svg

<?xml version="1.0" encoding="UTF-8"?>
<svg xmlns="http://www.w3.org/2000/svg" xmlns:xlink="http://www.w3.org/1999/xlink" width="128pt" height="128pt" viewBox="0 0 128 128" version="1.1">
<defs>
<radialGradient id="radial0" gradientUnits="userSpaceOnUse" cx="450.908936" cy="189.579361" fx="450.908936" fy="189.579361" r="21.166656" gradientTransform="matrix(0.000000696681,-0.31253,-0.562554,-0.000000406154,194.630644,254.381318)">
<stop offset="0" style="stop-color:rgb(0%,0%,0%);stop-opacity:0.313725;"/>
<stop offset="0.222222" style="stop-color:rgb(0%,0%,0%);stop-opacity:0.27451;"/>
<stop offset="1" style="stop-color:rgb(0%,0%,0%);stop-opacity:0;"/>
</radialGradient>
<radialGradient id="radial1" gradientUnits="userSpaceOnUse" cx="450.908936" cy="189.579361" fx="450.908936" fy="189.579361" r="21.166656" gradientTransform="matrix(-0.000000696681,0.31253,0.562554,0.000000406154,-51.080475,-30.109928)">
<stop offset="0" style="stop-color:rgb(0%,0%,0%);stop-opacity:0.313725;"/>
<stop offset="0.222222" style="stop-color:rgb(0%,0%,0%);stop-opacity:0.27451;"/>
<stop offset="1" style="stop-color:rgb(0%,0%,0%);stop-opacity:0;"/>
</radialGradient>
<radialGradient id="radial2" gradientUnits="userSpaceOnUse" cx="450.908936" cy="189.579361" fx="450.908936" fy="189.579361" r="21.166656" gradientTransform="matrix(-0.000000696681,-0.31253,0.562554,-0.000000406154,-51.080475,254.381318)">
<stop offset="0" style="stop-color:rgb(0%,0%,0%);stop-opacity:0.313725;"/>
<stop offset="0.222222" style="stop-color:rgb(0%,0%,0%);stop-opacity:0.27451;"/>
<stop offset="1" style="stop-color:rgb(0%,0%,0%);stop-opacity:0;"/>
</radialGradient>
<radialGradient id="radial3" gradientUnits="userSpaceOnUse" cx="450.908936" cy="189.579361" fx="450.908936" fy="189.579361" r="21.166656" gradientTransform="matrix(0.000000696681,0.31253,-0.562554,0.000000406154,194.630636,-30.10993)">
<stop offset="0" style="stop-color:rgb(0%,0%,0%);stop-opacity:0.313725;"/>
<stop offset="0.222222" style="stop-color:rgb(0%,0%,0%);stop-opacity:0.27451;"/>
<stop offset="1" style="stop-color:rgb(0%,0%,0%);stop-opacity:0;"/>
</radialGradient>
<linearGradient id="linear0" gradientUnits="userSpaceOnUse" x1="255.323059" y1="233.5" x2="255.323044" y2="254.666656" gradientTransform="matrix(0.0534402,0,0,0.250024,49.861545,53.755135)">
<stop offset="0" style="stop-color:rgb(0%,0%,0%);stop-opacity:0.27451;"/>
<stop offset="1" style="stop-color:rgb(0%,0%,0%);stop-opacity:0;"/>
</linearGradient>
<linearGradient id="linear1" gradientUnits="userSpaceOnUse" x1="254" y1="-168.666672" x2="254" y2="32.416664" >
<stop offset="0" style="stop-color:rgb(100%,83.529412%,30.980392%);stop-opacity:1;"/>
<stop offset="1" style="stop-color:rgb(100%,79.215686%,15.686275%);stop-opacity:1;"/>
</linearGradient>
<linearGradient id="linear2" gradientUnits="userSpaceOnUse" x1="254" y1="-168.666672" x2="254" y2="32.416668" gradientTransform="matrix(3.779528,0,0,3.779528,0,812.59845)">
<stop offset="0" style="stop-color:rgb(39.215686%,70.980392%,96.470588%);stop-opacity:1;"/>
<stop offset="1" style="stop-color:rgb(25.882353%,64.705882%,96.078431%);stop-opacity:1;"/>
</linearGradient>
<linearGradient id="linear3" gradientUnits="userSpaceOnUse" x1="254" y1="-168.666672" x2="254" y2="32.41642" gradientTransform="matrix(1,0,0,-1,0,64.833084)">
<stop offset="0" style="stop-color:rgb(40%,73.333333%,41.568627%);stop-opacity:1;"/>
<stop offset="1" style="stop-color:rgb(50.588235%,78.039216%,51.764706%);stop-opacity:1;"/>
</linearGradient>
<linearGradient id="linear4" gradientUnits="userSpaceOnUse" x1="254" y1="-168.666672" x2="254" y2="32.41642" gradientTransform="matrix(-1,0.000000000000000122,-0.000000000000000122,-1,508,64.833084)">
<stop offset="0" style="stop-color:rgb(93.72549%,32.54902%,31.372549%);stop-opacity:1;"/>
<stop offset="1" style="stop-color:rgb(89.803922%,45.098039%,45.098039%);stop-opacity:1;"/>
</linearGradient>
<linearGradient id="linear5" gradientUnits="userSpaceOnUse" x1="1320" y1="1695.118164" x2="1320" y2="975.118103" gradientTransform="matrix(0.0661521,0,0,0.0661521,0,0)">
<stop offset="0" style="stop-color:rgb(69.019608%,74.509804%,77.254902%);stop-opacity:1;"/>
<stop offset="1" style="stop-color:rgb(81.176471%,84.705882%,86.27451%);stop-opacity:1;"/>
</linearGradient>
<linearGradient id="linear6" gradientUnits="userSpaceOnUse" x1="243.416672" y1="-20.5" x2="243.416672" y2="85.333336" >
<stop offset="0" style="stop-color:rgb(69.019608%,74.509804%,77.254902%);stop-opacity:1;"/>
<stop offset="1" style="stop-color:rgb(81.176471%,84.705882%,86.27451%);stop-opacity:1;"/>
</linearGradient>
</defs>
<g id="surface1">
<path style=" stroke:none;fill-rule:nonzero;fill:url(#radial0);" d="M 89.304688 112.136719 L 99.890625 112.136719 L 99.890625 106.84375 L 89.304688 106.84375 Z M 89.304688 112.136719 "/>
<path style=" stroke:none;fill-rule:nonzero;fill:url(#radial1);" d="M 54.246094 112.136719 L 43.660156 112.136719 L 43.660156 117.429688 L 54.246094 117.429688 Z M 54.246094 112.136719 "/>
<path style=" stroke:none;fill-rule:nonzero;fill:url(#radial2);" d="M 54.246094 112.136719 L 43.660156 112.136719 L 43.660156 106.84375 L 54.246094 106.84375 Z M 54.246094 112.136719 "/>
<path style=" stroke:none;fill-rule:nonzero;fill:url(#radial3);" d="M 89.304688 112.136719 L 99.890625 112.136719 L 99.890625 117.429688 L 89.304688 117.429688 Z M 89.304688 112.136719 "/>
<path style=" stroke:none;fill-rule:nonzero;fill:url(#linear0);" d="M 54.246094 109.488281 L 89.304688 109.488281 L 89.304688 117.429688 L 54.246094 117.429688 Z M 54.246094 109.488281 "/>
<path style="fill-rule:nonzero;fill:url(#linear1);stroke-width:3;stroke-linecap:round;stroke-linejoin:miter;stroke:rgb(20%,20%,20%);stroke-opacity:1;stroke-miterlimit:4;" d="M 254.006994 -168.660675 C 365.058889 -168.660675 455.081542 -78.638022 455.081542 32.413873 C 455.081542 143.465768 365.058889 233.504045 254.006994 233.504045 C 142.939475 233.504045 52.916822 143.465768 52.916822 32.413873 C 52.916822 -78.638022 142.939475 -168.660675 254.006994 -168.660675 Z M 254.006994 -168.660675 " transform="matrix(0.250024,0,0,0.250024,0,53.755133)"/>
<path style="fill-rule:nonzero;fill:url(#linear2);stroke-width:11.338583;stroke-linecap:round;stroke-linejoin:miter;stroke:rgb(20%,20%,20%);stroke-opacity:1;stroke-miterlimit:4;" d="M 960.026483 175.140764 C 538.944625 175.140764 200.000596 514.084793 200.000596 935.107601 L 960.026483 935.107601 Z M 960.026483 175.140764 " transform="matrix(0.0661521,0,0,0.0661521,0,0)"/>
<path style="fill-rule:nonzero;fill:url(#linear3);stroke-width:3;stroke-linecap:round;stroke-linejoin:miter;stroke:rgb(20%,20%,20%);stroke-opacity:1;stroke-miterlimit:4;" d="M 254.006994 233.504045 C 142.595758 233.504045 52.916822 143.809485 52.916822 32.413873 L 254.006994 32.413873 Z M 254.006994 233.504045 " transform="matrix(0.250024,0,0,0.250024,0,53.755133)"/>
<path style="fill-rule:nonzero;fill:url(#linear4);stroke-width:3;stroke-linecap:round;stroke-linejoin:miter;stroke:rgb(20%,20%,20%);stroke-opacity:1;stroke-miterlimit:4;" d="M 254.006994 233.504045 C 365.402606 233.504045 455.081542 143.809485 455.081542 32.413873 L 254.006994 32.413873 Z M 254.006994 233.504045 " transform="matrix(0.250024,0,0,0.250024,0,53.755133)"/>
<path style=" stroke:none;fill-rule:nonzero;fill:rgb(0%,0%,0%);fill-opacity:0.196078;" d="M 63.507812 112.136719 C 35.652344 112.136719 13.230469 89.710938 13.230469 61.859375 C 13.230469 61.695312 13.230469 61.53125 13.234375 61.367188 C 13.496094 88.992188 35.816406 111.152344 63.507812 111.152344 C 91.195312 111.152344 113.515625 88.992188 113.777344 61.367188 C 113.78125 61.53125 113.78125 61.695312 113.78125 61.859375 C 113.78125 89.710938 91.359375 112.136719 63.507812 112.136719 Z M 63.507812 112.136719 "/>
<path style=" stroke:none;fill-rule:nonzero;fill:rgb(100%,100%,100%);fill-opacity:0.392157;" d="M 63.507812 11.585938 C 35.652344 11.585938 13.230469 34.007812 13.230469 61.859375 C 13.230469 62.023438 13.230469 62.1875 13.234375 62.351562 C 13.496094 34.726562 35.816406 12.570312 63.507812 12.570312 C 91.195312 12.570312 113.515625 34.726562 113.777344 62.351562 C 113.78125 62.1875 113.78125 62.023438 113.78125 61.859375 C 113.78125 34.007812 91.359375 11.585938 63.507812 11.585938 Z M 63.507812 11.585938 "/>
<path style=" stroke:none;fill-rule:nonzero;fill:rgb(12.941177%,12.941177%,12.941177%);fill-opacity:1;" d="M 63.507812 11.210938 C 35.453125 11.210938 12.855469 33.804688 12.855469 61.859375 C 12.855469 89.914062 35.453125 112.511719 63.507812 112.511719 C 91.558594 112.511719 114.15625 89.914062 114.15625 61.859375 C 114.15625 33.804688 91.558594 11.210938 63.507812 11.210938 Z M 63.507812 11.960938 C 91.15625 11.960938 113.40625 34.207031 113.40625 61.859375 C 113.40625 89.511719 91.15625 111.761719 63.507812 111.761719 C 35.855469 111.761719 13.605469 89.511719 13.605469 61.859375 C 13.605469 34.207031 35.855469 11.960938 63.507812 11.960938 Z M 63.507812 11.960938 "/>
<path style=" stroke:none;fill-rule:nonzero;fill:url(#linear5);" d="M 87.320312 64.507812 C 79.382812 69.796875 71.445312 87.929688 71.445312 96.257812 C 71.445312 105.054688 78.523438 112.136719 87.320312 112.136719 C 96.117188 112.136719 103.199219 105.054688 103.199219 96.257812 C 103.152344 87.0625 95.257812 69.796875 87.320312 64.507812 Z M 87.320312 64.507812 "/>
<path style=" stroke:none;fill-rule:nonzero;fill:rgb(100%,100%,100%);fill-opacity:0.392157;" d="M 87.320312 64.507812 C 79.382812 69.796875 71.445312 87.929688 71.445312 96.257812 C 71.445312 96.492188 71.449219 96.71875 71.460938 96.949219 C 71.835938 88.367188 79.578125 70.992188 87.320312 65.828125 C 95.082031 71.003906 102.800781 87.625 103.179688 96.957031 C 103.191406 96.726562 103.199219 96.492188 103.199219 96.257812 C 103.152344 87.0625 95.257812 69.796875 87.320312 64.507812 Z M 87.320312 64.507812 "/>
<path style=" stroke:none;fill-rule:nonzero;fill:rgb(0%,0%,0%);fill-opacity:0.235294;" d="M 71.460938 95.640625 C 71.449219 95.851562 71.445312 96.058594 71.445312 96.257812 C 71.445312 105.054688 78.523438 112.136719 87.320312 112.136719 C 96.117188 112.136719 103.199219 105.054688 103.199219 96.257812 C 103.195312 96.058594 103.191406 95.855469 103.183594 95.648438 C 102.828125 104.125 95.886719 110.84375 87.320312 110.84375 C 78.75 110.84375 71.808594 104.121094 71.460938 95.640625 Z M 71.460938 95.640625 "/>
<path style=" stroke:none;fill-rule:nonzero;fill:rgb(12.941177%,12.941177%,12.941177%);fill-opacity:1;" d="M 87.316406 64.132812 C 87.242188 64.132812 87.171875 64.152344 87.113281 64.195312 C 83.027344 66.917969 79.0625 72.8125 76.066406 79.082031 C 73.074219 85.351562 71.070312 91.976562 71.070312 96.257812 C 71.070312 105.257812 78.324219 112.511719 87.320312 112.511719 C 96.316406 112.511719 103.574219 105.257812 103.574219 96.257812 C 103.550781 91.554688 101.546875 84.917969 98.554688 78.753906 C 95.566406 72.589844 91.605469 66.914062 87.527344 64.195312 C 87.464844 64.152344 87.390625 64.128906 87.316406 64.132812 Z M 87.320312 64.96875 C 91.113281 67.601562 94.980469 73.101562 97.882812 79.082031 C 100.835938 85.171875 102.800781 91.769531 102.824219 96.261719 C 102.820312 104.855469 95.914062 111.761719 87.320312 111.761719 C 78.726562 111.761719 71.820312 104.851562 71.820312 96.257812 C 71.820312 92.214844 73.785156 85.605469 76.742188 79.40625 C 79.652344 73.316406 83.535156 67.601562 87.320312 64.96875 Z M 87.320312 64.96875 "/>
<path style="fill-rule:nonzero;fill:url(#linear6);stroke-width:3;stroke-linecap:square;stroke-linejoin:round;stroke:rgb(12.941177%,12.941177%,12.941177%);stroke-opacity:1;stroke-miterlimit:4;" d="M 254.006994 -20.502949 C 283.222954 -20.502949 306.923815 3.197913 306.923815 32.413873 C 306.923815 61.645457 283.222954 85.330695 254.006994 85.330695 C 224.77541 85.330695 201.090172 61.645457 201.090172 32.413873 C 201.090172 3.197913 224.77541 -20.502949 254.006994 -20.502949 Z M 254.006994 -20.502949 " transform="matrix(0.250024,0,0,0.250024,0,53.755133)"/>
</g>
</svg>

<svg xmlns="http://www.w3.org/2000/svg" width="128pt" height="128pt" viewBox="0 0 128 128"><defs><radialGradient id="a" gradientUnits="userSpaceOnUse" cx="450.909" cy="189.579" fx="450.909" fy="189.579" r="21.167" gradientTransform="matrix(0 -.31253 -.56255 0 194.63 254.381)"><stop offset="0" stop-opacity=".314"/><stop offset=".222" stop-opacity=".275"/><stop offset="1" stop-opacity="0"/></radialGradient><radialGradient id="b" gradientUnits="userSpaceOnUse" cx="450.909" cy="189.579" fx="450.909" fy="189.579" r="21.167" gradientTransform="matrix(0 .31253 .56255 0 -51.08 -30.11)"><stop offset="0" stop-opacity=".314"/><stop offset=".222" stop-opacity=".275"/><stop offset="1" stop-opacity="0"/></radialGradient><radialGradient id="c" gradientUnits="userSpaceOnUse" cx="450.909" cy="189.579" fx="450.909" fy="189.579" r="21.167" gradientTransform="matrix(0 -.31253 .56255 0 -51.08 254.381)"><stop offset="0" stop-opacity=".314"/><stop offset=".222" stop-opacity=".275"/><stop offset="1" stop-opacity="0"/></radialGradient><radialGradient id="d" gradientUnits="userSpaceOnUse" cx="450.909" cy="189.579" fx="450.909" fy="189.579" r="21.167" gradientTransform="matrix(0 .31253 -.56255 0 194.63 -30.11)"><stop offset="0" stop-opacity=".314"/><stop offset=".222" stop-opacity=".275"/><stop offset="1" stop-opacity="0"/></radialGradient><linearGradient id="e" gradientUnits="userSpaceOnUse" x1="255.323" y1="233.5" x2="255.323" y2="254.667" gradientTransform="matrix(.05344 0 0 .25002 49.862 53.755)"><stop offset="0" stop-opacity=".275"/><stop offset="1" stop-opacity="0"/></linearGradient><linearGradient id="f" gradientUnits="userSpaceOnUse" x1="254" y1="-168.667" x2="254" y2="32.417"><stop offset="0" stop-color="#ffd54f"/><stop offset="1" stop-color="#ffca28"/></linearGradient><linearGradient id="g" gradientUnits="userSpaceOnUse" x1="254" y1="-168.667" x2="254" y2="32.417" gradientTransform="matrix(3.77953 0 0 3.77953 0 812.598)"><stop offset="0" stop-color="#64b5f6"/><stop offset="1" stop-color="#42a5f5"/></linearGradient><linearGradient id="h" gradientUnits="userSpaceOnUse" x1="254" y1="-168.667" x2="254" y2="32.416" gradientTransform="matrix(1 0 0 -1 0 64.833)"><stop offset="0" stop-color="#66bb6a"/><stop offset="1" stop-color="#81c784"/></linearGradient><linearGradient id="i" gradientUnits="userSpaceOnUse" x1="254" y1="-168.667" x2="254" y2="32.416" gradientTransform="rotate(180 254 32.417)"><stop offset="0" stop-color="#ef5350"/><stop offset="1" stop-color="#e57373"/></linearGradient><linearGradient id="j" gradientUnits="userSpaceOnUse" x1="1320" y1="1695.118" x2="1320" y2="975.118" gradientTransform="scale(.06615)"><stop offset="0" stop-color="#b0bec5"/><stop offset="1" stop-color="#cfd8dc"/></linearGradient><linearGradient id="k" gradientUnits="userSpaceOnUse" x1="243.417" y1="-20.5" x2="243.417" y2="85.333"><stop offset="0" stop-color="#b0bec5"/><stop offset="1" stop-color="#cfd8dc"/></linearGradient></defs><path d="M89.305 112.137H99.89v-5.293H89.305zm0 0" fill="url(#a)"/><path d="M54.246 112.137H43.66v5.293h10.586zm0 0" fill="url(#b)"/><path d="M54.246 112.137H43.66v-5.293h10.586zm0 0" fill="url(#c)"/><path d="M89.305 112.137H99.89v5.293H89.305zm0 0" fill="url(#d)"/><path d="M54.246 109.488h35.059v7.942H54.246zm0 0" fill="url(#e)"/><path d="M254.007-168.66c111.052 0 201.075 90.022 201.075 201.074s-90.023 201.09-201.075 201.09c-111.068 0-201.09-90.038-201.09-201.09s90.022-201.075 201.09-201.075zm0 0" transform="matrix(.25002 0 0 .25002 0 53.755)" fill="url(#f)" stroke-width="3" stroke-linecap="round" stroke="#333"/><path d="M960.026 175.14c-421.081 0-760.025 338.945-760.025 759.968h760.025zm0 0" transform="scale(.06615)" fill="url(#g)" stroke-width="11.339" stroke-linecap="round" stroke="#333"/><path d="M254.007 233.504c-111.411 0-201.09-89.695-201.09-201.09h201.09zm0 0" transform="matrix(.25002 0 0 .25002 0 53.755)" fill="url(#h)" stroke-width="3" stroke-linecap="round" stroke="#333"/><path d="M254.007 233.504c111.396 0 201.075-89.695 201.075-201.09H254.007zm0 0" transform="matrix(.25002 0 0 .25002 0 53.755)" fill="url(#i)" stroke-width="3" stroke-linecap="round" stroke="#333"/><path d="M63.508 112.137c-27.856 0-50.278-22.426-50.278-50.278 0-.164 0-.328.004-.492.262 27.625 22.582 49.785 50.274 49.785 27.687 0 50.008-22.16 50.27-49.785.003.164.003.328.003.492 0 27.852-22.422 50.278-50.273 50.278zm0 0" fill-opacity=".196"/><path d="M63.508 11.586c-27.856 0-50.278 22.422-50.278 50.273 0 .164 0 .328.004.493.262-27.625 22.582-49.782 50.274-49.782 27.687 0 50.008 22.157 50.27 49.782.003-.164.003-.329.003-.493 0-27.851-22.422-50.273-50.273-50.273zm0 0" fill="#fff" fill-opacity=".392"/><path d="M63.508 11.21c-28.055 0-50.653 22.595-50.653 50.65 0 28.054 22.598 50.652 50.653 50.652 28.05 0 50.648-22.598 50.648-50.653 0-28.054-22.597-50.648-50.648-50.648zm0 .75c27.648 0 49.898 22.247 49.898 49.9 0 27.652-22.25 49.902-49.898 49.902-27.653 0-49.903-22.25-49.903-49.903 0-27.652 22.25-49.898 49.903-49.898zm0 0" fill="#212121"/><path d="M87.32 64.508c-7.937 5.289-15.875 23.422-15.875 31.75a15.84 15.84 0 0 0 15.875 15.879 15.844 15.844 0 0 0 15.88-15.88c-.048-9.195-7.942-26.46-15.88-31.75zm0 0" fill="url(#j)"/><path d="M87.32 64.508c-7.937 5.289-15.875 23.422-15.875 31.75 0 .234.004.46.016.691.375-8.582 8.117-25.957 15.86-31.12 7.761 5.175 15.48 21.796 15.859 31.128.011-.23.02-.465.02-.7-.048-9.195-7.942-26.46-15.88-31.75zm0 0" fill="#fff" fill-opacity=".392"/><path d="M71.46 95.64a15.84 15.84 0 0 0 15.86 16.496 15.844 15.844 0 0 0 15.88-15.878c-.005-.2-.009-.403-.016-.61a15.842 15.842 0 0 1-15.864 15.196A15.835 15.835 0 0 1 71.46 95.64zm0 0" fill-opacity=".235"/><path d="M87.316 64.133a.338.338 0 0 0-.203.062c-4.086 2.723-8.05 8.618-11.047 14.887-2.992 6.27-4.996 12.895-4.996 17.176 0 9 7.254 16.254 16.25 16.254a16.227 16.227 0 0 0 16.254-16.254c-.023-4.703-2.027-11.34-5.02-17.504-2.988-6.164-6.949-11.84-11.027-14.559a.343.343 0 0 0-.21-.062zm.004.836c3.793 2.633 7.66 8.133 10.563 14.113 2.953 6.09 4.918 12.688 4.941 17.18a15.463 15.463 0 0 1-15.504 15.5 15.46 15.46 0 0 1-15.5-15.504c0-4.043 1.965-10.653 4.922-16.852 2.91-6.09 6.793-11.804 10.578-14.437zm0 0" fill="#212121"/><path d="M254.007-20.503c29.216 0 52.917 23.7 52.917 52.917 0 29.231-23.701 52.917-52.917 52.917-29.232 0-52.917-23.686-52.917-52.917 0-29.216 23.685-52.917 52.917-52.917zm0 0" transform="matrix(.25002 0 0 .25002 0 53.755)" fill="url(#k)" stroke-width="3" stroke-linecap="square" stroke-linejoin="round" stroke="#212121"/></svg>
